azure-patterns/svg-tables-mono.svg

<svg xmlns="http://www.w3.org/2000/svg" viewBox="0 0 24 24"><path d="M0 2v20h24V2H0zm23 19H1V6h22v15zM1 5V3h22v2H1zm6 4v1H5V9h2m1-1H4v3h4V8zm5 1v1h-2V9h2m1-1h-4v3h4V8zm5 1v1h-2V9h2m1-1h-4v3h4V8zM7 13v1H5v-1h2m1-1H4v3h4v-3zm5 1v1h-2v-1h2m1-1h-4v3h4v-3zm5 1v1h-2v-1h2m1-1h-4v3h4v-3zM7 17v1H5v-1h2m1-1H4v3h4v-3zm5 1v1h-2v-1h2m1-1h-4v3h4v-3zm5 1v1h-2v-1h2m1-1h-4v3h4v-3z"/></svg>

<svg xmlns="http://www.w3.org/2000/svg" viewBox="0 0 24 24">
                                
                            
  <path d="M0,2v20h24V2H0z M23,21H1V6h22V21z M1,5V3h22v2H1z M7,9v1H5V9H7 M8,8H4v3h4V8L8,8z M13,9v1h-2V9H13 M14,8h-4 v3h4V8L14,8z M19,9v1h-2V9H19 M20,8h-4v3h4V8L20,8z M7,13v1H5v-1H7 M8,12H4v3h4V12L8,12z M13,13v1h-2v-1H13 M14,12h-4v3h4V12L14,12z M19,13v1h-2v-1H19 M20,12h-4v3h4V12L20,12z M7,17v1H5v-1H7 M8,16H4v3h4V16L8,16z M13,17v1h-2v-1H13 M14,16h-4v3h4V16L14,16z M19,17 v1h-2v-1H19 M20,16h-4v3h4V16L20,16z"></path>
</svg>
